christians-website/frontend/static/images/Pepis/Features/findpepis.svg

<svg height="444" viewBox="0 0 783 444" width="783" xmlns="http://www.w3.org/2000/svg"><g fill="none" fill-rule="evenodd"><path d="m668 3.55720011v378.44279989h-577v-45.311695zm5.794911-3.34569357.36634-.21150654h108.838749v201h-98.255507v-200.78849346zm-33.122646-.21150654-154.672265 89.300074v-14.300074h-395v-74.78849346h-17v74.78849346h-74v-75zm-158.906123 91.744493-390.766142 225.608937v-225.608937zm-481.766142 290.255507v-119.255507h74v119.255507zm0 16.744493h74v45.255507h-74zm668 0v45.255507h-577v-45.255507zm115-16.744493h-98.255507v-164.255507h98.255507zm0 16.744493v45.255507h-98.255507v-45.255507zm-783-152.744493v-154.255507h74v154.255507z" fill="#fbfdfe" fill-rule="nonzero"/><g transform="translate(198.5 63)"><ellipse cx="363.130033" cy="298.419856" fill="#8b572a" fill-rule="nonzero" opacity=".1" rx="8.333321" ry="20.230858" transform="matrix(.70710678 -.70710678 .70710678 .70710678 -104.65638 344.176861)"/><ellipse cx="365" cy="294" fill="#8b572a" fill-rule="nonzero" rx="4.5" ry="6"/><ellipse cx="365" cy="287" fill="#8b572a" fill-rule="nonzero" rx="4.5" ry="6"/><ellipse cx="365" cy="280" fill="#8b572a" fill-rule="nonzero" rx="4.5" ry="6"/><ellipse cx="365" cy="273" fill="#8b572a" fill-rule="nonzero" rx="4.5" ry="6"/><ellipse cx="365" cy="265" fill="#8b572a" fill-rule="nonzero" rx="4.5" ry="6"/><ellipse cx="365" cy="258" fill="#8b572a" fill-rule="nonzero" rx="4.5" ry="6"/><ellipse cx="365" cy="251" fill="#8b572a" fill-rule="nonzero" rx="4.5" ry="6"/><path d="m381.888506 202.74576c.613785-.778545 1.172545-1.598825 1.672225-2.45489l-11.789184-1.933017 12.750713.09185c2.472006-5.37033 2.623187-11.519695.418056-17.004705l-17.102678 8.863489 15.764898-11.581402c-4.025115-6.958241-11.605088-11.088202-19.642424-10.702207-8.037336.385994-15.185504 5.223277-18.523463 12.535131-3.337958 7.311854-2.306485 15.873292 2.672918 22.185751-.955652 1.211819-1.777047 2.523456-2.449809 3.911959l15.300856 7.932467-16.304191-5.469227c-2.325769 6.871062-1.022364 14.450238 3.465686 20.152641-6.929002 8.797401-5.923745 21.435772 2.309082 29.030416 8.232826 7.594645 20.927948 7.594645 29.160775 0 8.232826-7.594644 9.238084-20.233015 2.309082-29.030416 6.131134-7.78579 6.131134-18.750399 0-26.53619z" fill="#417505" fill-rule="nonzero"/><path d="m343.500335 215.3142c-.008084 4.782889 1.613256 9.428245 4.601095 13.182756-6.932735 8.740818-5.926936 21.297899 2.310326 28.843696 8.237263 7.545797 20.939225 7.545797 29.176488 0 8.237262-7.545797 9.243061-20.102878 2.310326-28.843696 2.881959-3.625465-38.398235-15.576227-38.398235-13.182756z" fill="#417505" fill-rule="nonzero" opacity=".1"/><path d="m354.5 0v299.759036l-101.797176-14.155288-123.746149 25.192249-.997111.204003-98.459564-27.06158v-260.6238283l102.214377-23.3145917 111.810013 23.3145917 4.251284-.8951138z" fill="#444053" fill-rule="nonzero"/><path d="m337.5 16v267.954964l-91.145208-12.653001-110.801277 22.519181-.893458.178856-88.160057-24.187115v-232.9741155l91.525136-20.8387695 100.10901 20.8387695 3.807633-.7986115z" fill="#fff" fill-rule="nonzero"/><path d="m252.5 285.791215-124 25.208785 2.763359-311 112.039379 23.3298951 4.260004-.8957013z" fill="#000" fill-rule="nonzero" opacity=".1"/><g opacity=".3" stroke="#444053" stroke-width="3" transform="translate(36.5 57)"><path d="m203.083986 0 .050109 87.1101871h36.328378v-35.7588357h62.217568l7.307432-9.3305614"/><path d="m.82260811 27.6507277h135.08310789l8.351352-3.7422038h3.34054v83.9916841h58.45946l2.505405 7.484407v37.837838h45.097297v46.777547"/><path d="m165.44027 200v-92.099792"/><path d="m308.987473 175.326403h-143.547203"/><path d="m273.034905 0v200"/><path d="m.40504054 157.64657h308.58243246"/><path d="m37.9610676 200v-200"/><path d="m109.690824 0v200"/><path d="m.82260811 50.5197505 238.63986489.8316009"/><path d="m70.2766216.36174636v199.63825364"/><path d="m.40504054 96.8066528h109.28578346l55.749446 60.8399172"/><path d="m177.516324 0v107.900208"/><path d="m165.44027 127.226611h143.547203"/></g><path d="m244.293103 184h-41.793103v-18.786517l39.517241-.213483 2.482759 7.258427z" fill="#ff7000" fill-rule="nonzero"/><path d="m223.5 135c-5.522847 0-10 4.414811-10 9.860757 0 5.445892 10 23.139243 10 23.139243s10-17.686216 10-23.139243c0-5.445946-4.477153-9.860757-10-9.860757zm.5 14c-2.485281 0-4.5-2.014719-4.5-4.5s2.014719-4.5 4.5-4.5 4.5 2.014719 4.5 4.5c-.001022 2.484559-2.015441 4.49815-4.5 4.49815z" fill="#ff7000" fill-rule="nonzero"/><path d="m91 141.5h14v10.5h-14z" fill="#ff7000" stroke="#b4b3b9"/><g fill-rule="nonzero"><path d="m98.5 114c-5.5228475 0-10 4.414811-10 9.860757 0 5.445892 10 23.139243 10 23.139243s10-17.686216 10-23.139243c0-5.445946-4.477153-9.860757-10-9.860757zm.5 14c-2.4852814 0-4.5-2.014719-4.5-4.5s2.0147186-4.5 4.5-4.5c2.485281 0 4.5 2.014719 4.5 4.5-.001022 2.484559-2.015441 4.49815-4.5 4.49815z" fill="#ff7000"/><path d="m302.5 74c-5.522847 0-10 4.4148112-10 9.8607568 0 5.4458918 10 23.1392432 10 23.1392432s10-17.6862162 10-23.1392432c0-5.4459456-4.477153-9.8607568-10-9.8607568zm.5 14c-2.485281 0-4.5-2.0147186-4.5-4.5s2.014719-4.5 4.5-4.5 4.5 2.0147186 4.5 4.5c-.001022 2.4845587-2.015441 4.4981499-4.5 4.4981497z" fill="#ff7000"/><ellipse cx="213.982761" cy="305.431604" fill="#000" opacity=".1" rx="13.954156" ry="5.740507" transform="matrix(.91844638 -.3955455 .3955455 .91844638 -103.361029 109.548971)"/><ellipse cx="213.5" cy="303" fill="#8b572a" rx="3" ry="4"/><ellipse cx="213.5" cy="298" fill="#8b572a" rx="3" ry="4"/><ellipse cx="213.5" cy="293" fill="#8b572a" rx="3" ry="4"/><ellipse cx="213.5" cy="289" fill="#8b572a" rx="3" ry="4"/><ellipse cx="213.5" cy="284" fill="#8b572a" rx="3" ry="4"/><ellipse cx="213.5" cy="278" fill="#3f3d56" rx="3" ry="4"/><ellipse cx="213.5" cy="273" fill="#3f3d56" rx="3" ry="4"/><path d="m201.710136 239.87642c-.426896-.528685-.817115-1.085055-1.168007-1.665333l8.226831-1.332267-8.887009.066614c-1.722314-3.691511-1.826369-7.917248-.28777-11.686475l11.933984 6.070139-11.002964-7.960292c2.808885-4.780579 8.096548-7.617446 13.702781-7.351634s10.592087 3.589784 12.920652 8.613948c2.328565 5.024165 1.609846 10.907059-1.862532 15.2453.660297.834437 1.227792 1.73609 1.692763 2.689513l-10.668643 5.458129 11.383836-3.747c1.624116 4.722311.715254 9.932089-2.41642 13.851408 4.835873 6.046903 4.135115 14.734908-1.609601 19.955835-5.744715 5.220927-14.603585 5.220927-20.3483 0-5.744716-5.220927-6.445474-13.908932-1.609601-19.955835-4.277202-5.351779-4.277202-12.887781 0-18.23956z" fill="#417505"/><path d="m228.49765 249.212327c.005791 3.288674-1.124994 6.482893-3.209095 9.064986 4.837845 6.0092 4.136801 14.643033-1.610257 19.831407-5.747057 5.188373-14.609539 5.188373-20.356596 0-5.747058-5.188374-6.448102-13.822207-1.610257-19.831407-2.010977-2.482424 26.786205-10.695111 26.786205-9.064986z" fill="#417505" opacity=".1"/><ellipse cx="20.528528" cy="289.257276" fill="#8b572a" opacity=".1" rx="8.333321" ry="20.230858" transform="matrix(.70710678 -.70710678 .70710678 .70710678 -198.523115 99.237356)"/><ellipse cx="22" cy="285" fill="#8b572a" rx="4.5" ry="6"/><ellipse cx="22" cy="278" fill="#8b572a" rx="4.5" ry="6"/><ellipse cx="22" cy="270" fill="#8b572a" rx="4.5" ry="6"/><ellipse cx="22" cy="263" fill="#8b572a" rx="4.5" ry="6"/><ellipse cx="22" cy="256" fill="#8b572a" rx="4.5" ry="6"/><ellipse cx="22" cy="249" fill="#8b572a" rx="4.5" ry="6"/><ellipse cx="22" cy="242" fill="#8b572a" rx="4.5" ry="6"/><path d="m38.8885059 192.74576c.6137854-.778545 1.1725448-1.598825 1.6722247-2.45489l-11.7891841-1.933017 12.7507133.09185c2.4720064-5.37033 2.6231869-11.519695.4180562-17.004705l-17.102678 8.863489 15.7648982-11.581402c-4.0251156-6.958241-11.6050886-11.088202-19.6424246-10.702207-8.0373359.385994-15.1855036 5.223277-18.52346222 12.535131s-2.30648491 15.873292 2.67291776 22.185751c-.95565236 1.211819-1.77704668 2.523456-2.44980918 3.911959l15.30085594 7.932467-16.30419076-5.469227c-2.32576917 6.871062-1.02236463 14.450238 3.46568568 20.152641-6.9290019 8.797401-5.92374485 21.435772 2.30908179 29.030416 8.23282669 7.594645 20.92794859 7.594645 29.16077519 0 8.2328267-7.594644 9.2380837-20.233015 2.3090818-29.030416 6.1311347-7.78579 6.1311347-18.750399 0-26.53619z" fill="#417505"/><path d="m.50033465 206.3142c-.00808328 4.782889 1.61325657 9.428245 4.6010957 13.182756-6.93273533 8.740818-5.92693663 21.297899 2.31032596 28.843696s20.93922479 7.545797 29.17648739 0 9.2430613-20.102878 2.3103259-28.843696c2.8819591-3.625465-38.39823495-15.576227-38.39823495-13.182756z" fill="#417505" opacity=".1"/></g></g></g></svg>

<?xml version="1.0" encoding="UTF-8"?>
<svg width="783px" height="444px" viewBox="0 0 783 444" version="1.1" xmlns="http://www.w3.org/2000/svg" xmlns:xlink="http://www.w3.org/1999/xlink">
    <!-- Generator: Sketch 53.2 (72643) - https://sketchapp.com -->
    <title>findpepis</title>
    <desc>Created with Sketch.</desc>
    <defs>
        <path d="M668,3.55720011 L668,382 L91,382 L91,336.688305 L668,3.55720011 Z M673.794911,0.211506537 L674.161251,-4.47419879e-14 L783,0 L783,201 L684.744493,201 L684.744493,0.211506537 L673.794911,0.211506537 Z M640.672265,-1.42108547e-14 L486,89.300074 L486,75 L91,75 L91,0.211506537 L74,0.211506537 L74,75 L1.15737447e-13,75 L1.13686838e-13,0 L640.672265,0 Z M481.766142,91.744493 L91,317.35343 L91,91.744493 L481.766142,91.744493 Z M1.13686838e-13,382 L1.13686838e-13,262.744493 L74,262.744493 L74,382 L1.15737447e-13,382 Z M1.11636229e-13,398.744493 L74,398.744493 L74,444 L1.13686838e-13,444 L1.13686838e-13,398.744493 Z M668,398.744493 L668,444 L91,444 L91,398.744493 L668,398.744493 Z M783,382 L684.744493,382 L684.744493,217.744493 L783,217.744493 L783,382 Z M783,398.744493 L783,444 L684.744493,444 L684.744493,398.744493 L783,398.744493 Z M1.13686838e-13,246 L1.13686838e-13,91.744493 L74,91.744493 L74,246 L1.13686838e-13,246 Z" id="path-1"></path>
    </defs>
    <g id="Page-1" stroke="none" stroke-width="1" fill="none" fill-rule="evenodd">
        <g id="findpepis">
            <g id="Find-A-Bar">
                <g id="Group-3">
                    <g id="undraw_beer_celebration_3wc8-+-undraw_beer_celebration_3wc8-Mask">
                        <mask id="mask-2" fill="white">
                            <use xlink:href="#path-1"></use>
                        </mask>
                        <use id="Mask" fill="#FBFDFE" fill-rule="nonzero" xlink:href="#path-1"></use>
                    </g>
                </g>
                <g id="Group-2" transform="translate(198.500000, 63.000000)">
                    <ellipse id="Oval" fill="#8B572A" fill-rule="nonzero" opacity="0.1" transform="translate(363.130033, 298.419856) rotate(-45.000000) translate(-363.130033, -298.419856) " cx="363.130033" cy="298.419856" rx="8.33332107" ry="20.2308578"></ellipse>
                    <ellipse id="Oval" fill="#8B572A" fill-rule="nonzero" cx="365" cy="294" rx="4.5" ry="6"></ellipse>
                    <ellipse id="Oval" fill="#8B572A" fill-rule="nonzero" cx="365" cy="287" rx="4.5" ry="6"></ellipse>
                    <ellipse id="Oval" fill="#8B572A" fill-rule="nonzero" cx="365" cy="280" rx="4.5" ry="6"></ellipse>
                    <ellipse id="Oval" fill="#8B572A" fill-rule="nonzero" cx="365" cy="273" rx="4.5" ry="6"></ellipse>
                    <ellipse id="Oval" fill="#8B572A" fill-rule="nonzero" cx="365" cy="265" rx="4.5" ry="6"></ellipse>
                    <ellipse id="Oval" fill="#8B572A" fill-rule="nonzero" cx="365" cy="258" rx="4.5" ry="6"></ellipse>
                    <ellipse id="Oval" fill="#8B572A" fill-rule="nonzero" cx="365" cy="251" rx="4.5" ry="6"></ellipse>
                    <path d="M381.888506,202.74576 C382.502291,201.967215 383.061051,201.146935 383.560731,200.29087 L371.771547,198.357853 L384.52226,198.449703 C386.994266,193.079373 387.145447,186.930008 384.940316,181.444998 L367.837638,190.308487 L383.602536,178.727085 C379.577421,171.768844 371.997448,167.638883 363.960112,168.024878 C355.922776,168.410872 348.774608,173.248155 345.436649,180.560009 C342.098691,187.871863 343.130164,196.433301 348.109567,202.74576 C347.153915,203.957579 346.33252,205.269216 345.659758,206.657719 L360.960614,214.590186 L344.656423,209.120959 C342.330654,215.992021 343.634059,223.571197 348.122109,229.2736 C341.193107,238.071001 342.198364,250.709372 350.431191,258.304016 C358.664017,265.898661 371.359139,265.898661 379.591966,258.304016 C387.824792,250.709372 388.83005,238.071001 381.901048,229.2736 C388.032182,221.48781 388.032182,210.523201 381.901048,202.73741 L381.888506,202.74576 Z" id="Path" fill="#417505" fill-rule="nonzero"></path>
                    <path d="M343.500335,215.3142 C343.492251,220.097089 345.113591,224.742445 348.10143,228.496956 C341.168695,237.237774 342.174494,249.794855 350.411756,257.340652 C358.649019,264.886449 371.350981,264.886449 379.588244,257.340652 C387.825506,249.794855 388.831305,237.237774 381.89857,228.496956 C384.780529,224.871491 343.500335,212.920729 343.500335,215.3142 Z" id="Path" fill="#417505" fill-rule="nonzero" opacity="0.1"></path>
                    <polygon id="Path" fill="#444053" fill-rule="nonzero" points="354.5 0 354.5 299.759036 252.702824 285.603748 128.956675 310.795997 127.959564 311 29.5 283.93842 29.5 23.3145917 131.714377 0 243.52439 23.3145917 247.775674 22.4194779"></polygon>
                    <polygon id="Path" fill="#FFFFFF" fill-rule="nonzero" points="337.5 16 337.5 283.954964 246.354792 271.301963 135.553515 293.821144 134.660057 294 46.5 269.812885 46.5 36.8387695 138.025136 16 238.134146 36.8387695 241.941779 36.040158"></polygon>
                    <polygon id="Path" fill="#000000" fill-rule="nonzero" opacity="0.1" points="252.5 285.791215 128.5 311 131.263359 0 243.302738 23.3298951 247.562742 22.4341938"></polygon>
                    <g id="Group" opacity="0.3" transform="translate(36.500000, 57.000000)" stroke="#444053" stroke-width="3">
                        <polyline id="Path" points="203.083986 0 203.134095 87.1101871 239.462473 87.1101871 239.462473 51.3513514 301.680041 51.3513514 308.987473 42.02079"></polyline>
                        <polyline id="Path" points="0.822608108 27.6507277 135.905716 27.6507277 144.257068 23.9085239 147.597608 23.9085239 147.597608 107.900208 206.057068 107.900208 208.562473 115.384615 208.562473 153.222453 253.65977 153.222453 253.65977 200"></polyline>
                        <path d="M165.44027,200 L165.44027,107.900208" id="Path"></path>
                        <path d="M308.987473,175.326403 L165.44027,175.326403" id="Path"></path>
                        <path d="M273.034905,0 L273.034905,200" id="Path"></path>
                        <path d="M0.405040541,157.64657 L308.987473,157.64657" id="Path"></path>
                        <path d="M37.9610676,200 L37.9610676,0" id="Path"></path>
                        <path d="M109.690824,0 L109.690824,200" id="Path"></path>
                        <path d="M0.822608108,50.5197505 L239.462473,51.3513514" id="Path"></path>
                        <path d="M70.2766216,0.361746362 L70.2766216,200" id="Path"></path>
                        <polyline id="Path" points="0.405040541 96.8066528 109.690824 96.8066528 165.44027 157.64657"></polyline>
                        <path d="M177.516324,0 L177.516324,107.900208" id="Path"></path>
                        <path d="M165.44027,127.226611 L308.987473,127.226611" id="Path"></path>
                    </g>
                    <polygon id="Path" fill="#FF7000" fill-rule="nonzero" points="244.293103 184 202.5 184 202.5 165.213483 242.017241 165 244.5 172.258427"></polygon>
                    <path d="M223.5,135 C217.977153,135 213.5,139.414811 213.5,144.860757 C213.5,150.306649 223.5,168 223.5,168 C223.5,168 233.5,150.313784 233.5,144.860757 C233.5,139.414811 229.022847,135 223.5,135 Z M224,149 C221.514719,149 219.5,146.985281 219.5,144.5 C219.5,142.014719 221.514719,140 224,140 C226.485281,140 228.5,142.014719 228.5,144.5 C228.498978,146.984559 226.484559,148.99815 224,148.99815 L224,149 Z" id="Shape" fill="#FF7000" fill-rule="nonzero"></path>
                    <rect id="Rectangle" stroke="#B4B3B9" fill="#FF7000" x="91" y="141.5" width="14" height="10.5"></rect>
                    <path d="M98.5,114 C92.9771525,114 88.5,118.414811 88.5,123.860757 C88.5,129.306649 98.5,147 98.5,147 C98.5,147 108.5,129.313784 108.5,123.860757 C108.5,118.414811 104.022847,114 98.5,114 Z M99,128 C96.5147186,128 94.5,125.985281 94.5,123.5 C94.5,121.014719 96.5147186,119 99,119 C101.485281,119 103.5,121.014719 103.5,123.5 C103.498978,125.984559 101.484559,127.99815 99,127.99815 L99,128 Z" id="Shape" fill="#FF7000" fill-rule="nonzero"></path>
                    <path d="M302.5,74 C296.977153,74 292.5,78.4148112 292.5,83.8607568 C292.5,89.3066486 302.5,107 302.5,107 C302.5,107 312.5,89.3137838 312.5,83.8607568 C312.5,78.4148112 308.022847,74 302.5,74 Z M303,88 C300.514719,88 298.5,85.9852814 298.5,83.5 C298.5,81.0147186 300.514719,79 303,79 C305.485281,79 307.5,81.0147186 307.5,83.5 C307.498978,85.9845587 305.484559,87.9981499 303,87.9981497 L303,88 Z" id="Shape" fill="#FF7000" fill-rule="nonzero"></path>
                    <ellipse id="Oval" fill="#000000" fill-rule="nonzero" opacity="0.1" transform="translate(213.982761, 305.431604) rotate(-23.300000) translate(-213.982761, -305.431604) " cx="213.982761" cy="305.431604" rx="13.9541562" ry="5.74050658"></ellipse>
                    <ellipse id="Oval" fill="#8B572A" fill-rule="nonzero" cx="213.5" cy="303" rx="3" ry="4"></ellipse>
                    <ellipse id="Oval" fill="#8B572A" fill-rule="nonzero" cx="213.5" cy="298" rx="3" ry="4"></ellipse>
                    <ellipse id="Oval" fill="#8B572A" fill-rule="nonzero" cx="213.5" cy="293" rx="3" ry="4"></ellipse>
                    <ellipse id="Oval" fill="#8B572A" fill-rule="nonzero" cx="213.5" cy="289" rx="3" ry="4"></ellipse>
                    <ellipse id="Oval" fill="#8B572A" fill-rule="nonzero" cx="213.5" cy="284" rx="3" ry="4"></ellipse>
                    <ellipse id="Oval" fill="#3F3D56" fill-rule="nonzero" cx="213.5" cy="278" rx="3" ry="4"></ellipse>
                    <ellipse id="Oval" fill="#3F3D56" fill-rule="nonzero" cx="213.5" cy="273" rx="3" ry="4"></ellipse>
                    <path d="M201.710136,239.87642 C201.28324,239.347735 200.893021,238.791365 200.542129,238.211087 L208.76896,236.87882 L199.881951,236.945434 C198.159637,233.253923 198.055582,229.028186 199.594181,225.258959 L211.528165,231.329098 L200.525201,223.368806 C203.334086,218.588227 208.621749,215.75136 214.227982,216.017172 C219.834215,216.282984 224.820069,219.606956 227.148634,224.63112 C229.477199,229.655285 228.75848,235.538179 225.286102,239.87642 C225.946399,240.710857 226.513894,241.61251 226.978865,242.565933 L216.310222,248.024062 L227.694058,244.277062 C229.318174,248.999373 228.409312,254.209151 225.277638,258.12847 C230.113511,264.175373 229.412753,272.863378 223.668037,278.084305 C217.923322,283.305232 209.064452,283.305232 203.319737,278.084305 C197.575021,272.863378 196.874263,264.175373 201.710136,258.12847 C197.432934,252.776691 197.432934,245.240689 201.710136,239.88891 L201.710136,239.87642 Z" id="Path" fill="#417505" fill-rule="nonzero"></path>
                    <path d="M228.49765,249.212327 C228.503441,252.501001 227.372656,255.69522 225.288555,258.277313 C230.1264,264.286513 229.425356,272.920346 223.678298,278.10872 C217.931241,283.297093 209.068759,283.297093 203.321702,278.10872 C197.574644,272.920346 196.8736,264.286513 201.711445,258.277313 C199.700468,255.794889 228.49765,247.582202 228.49765,249.212327 Z" id="Path" fill="#417505" fill-rule="nonzero" opacity="0.1"></path>
                    <ellipse id="Oval" fill="#8B572A" fill-rule="nonzero" opacity="0.1" transform="translate(20.528528, 289.257276) rotate(-45.000000) translate(-20.528528, -289.257276) " cx="20.528528" cy="289.257276" rx="8.33332107" ry="20.2308578"></ellipse>
                    <ellipse id="Oval" fill="#8B572A" fill-rule="nonzero" cx="22" cy="285" rx="4.5" ry="6"></ellipse>
                    <ellipse id="Oval" fill="#8B572A" fill-rule="nonzero" cx="22" cy="278" rx="4.5" ry="6"></ellipse>
                    <ellipse id="Oval" fill="#8B572A" fill-rule="nonzero" cx="22" cy="270" rx="4.5" ry="6"></ellipse>
                    <ellipse id="Oval" fill="#8B572A" fill-rule="nonzero" cx="22" cy="263" rx="4.5" ry="6"></ellipse>
                    <ellipse id="Oval" fill="#8B572A" fill-rule="nonzero" cx="22" cy="256" rx="4.5" ry="6"></ellipse>
                    <ellipse id="Oval" fill="#8B572A" fill-rule="nonzero" cx="22" cy="249" rx="4.5" ry="6"></ellipse>
                    <ellipse id="Oval" fill="#8B572A" fill-rule="nonzero" cx="22" cy="242" rx="4.5" ry="6"></ellipse>
                    <path d="M38.8885059,192.74576 C39.5022913,191.967215 40.0610507,191.146935 40.5607306,190.29087 L28.7715465,188.357853 L41.5222598,188.449703 C43.9942662,183.079373 44.1454467,176.930008 41.940316,171.444998 L24.837638,180.308487 L40.6025362,168.727085 C36.5774206,161.768844 28.9974476,157.638883 20.9601116,158.024878 C12.9227757,158.410872 5.774608,163.248155 2.43664938,170.560009 C-0.901309237,177.871863 0.130164473,186.433301 5.10956714,192.74576 C4.15391478,193.957579 3.33252046,195.269216 2.65975796,196.657719 L17.9606139,204.590186 L1.65642314,199.120959 C-0.669346027,205.992021 0.634058511,213.571197 5.12210882,219.2736 C-1.80689308,228.071001 -0.801636029,240.709372 7.43119061,248.304016 C15.6640173,255.898661 28.3591392,255.898661 36.5919658,248.304016 C44.8247925,240.709372 45.8300495,228.071001 38.9010476,219.2736 C45.0321823,211.48781 45.0321823,200.523201 38.9010476,192.73741 L38.8885059,192.74576 Z" id="Path" fill="#417505" fill-rule="nonzero"></path>
                    <path d="M0.500334655,206.3142 C0.492251373,211.097089 2.11359122,215.742445 5.10143035,219.496956 C-1.83130498,228.237774 -0.825506283,240.794855 7.41175631,248.340652 C15.6490189,255.886449 28.3509811,255.886449 36.5882437,248.340652 C44.8255063,240.794855 45.831305,228.237774 38.8985696,219.496956 C41.7805287,215.871491 0.500334655,203.920729 0.500334655,206.3142 Z" id="Path" fill="#417505" fill-rule="nonzero" opacity="0.1"></path>
                </g>
            </g>
        </g>
    </g>
</svg>
